Printex-remake/img/icons/catalog_small/01.svg

<svg width="106" height="87" viewBox="0 0 106 87" fill="none" xmlns="http://www.w3.org/2000/svg">
<path d="M49.3581 70.9735L101.992 39.7932L64.4489 17.0499L53.7749 15.9495L86.901 34.2908V41.6274L37.2119 70.9735H49.3581Z" fill="#C7E0ED"/>
<path d="M53.9223 18.5172L4.4541 46.6895L37.4329 65.4711L86.9012 37.2988L53.9223 18.5172Z" fill="#D4EEFC"/>
<path d="M85.8908 34.3642L37.4329 61.9611L5.46445 43.755L53.9223 16.158L85.8908 34.3642Z" stroke="black" stroke-linejoin="bevel"/>
<path d="M4.4541 46.3961L37.4329 65.4712L86.9012 36.8586" stroke="black" stroke-linejoin="bevel"/>
<path d="M55.2471 44.1953L57.7747 42.2425C59.3167 41.0511 61.0808 40.1767 62.9646 39.6699L63.629 39.4912C65.7989 38.9075 67.7665 37.7415 69.3174 36.1203C70.527 34.8558 71.9942 33.8641 73.6204 33.2117L77.3311 31.7231" stroke="black" stroke-linejoin="bevel"/>
<path d="M61.8727 23.6528L60.0969 24.1836C59.2705 24.4306 58.5906 25.0217 58.2311 25.8058V25.8058C57.7771 26.796 56.8214 27.4619 55.7351 27.5448L55.3844 27.5715C54.4238 27.6448 53.5787 28.2336 53.1771 29.1094V29.1094C52.7756 29.9851 51.9304 30.574 50.9698 30.6473L50.4155 30.6895C49.4549 30.7628 48.6097 31.3517 48.2082 32.2274V32.2274C47.8067 33.1032 46.9615 33.692 46.0009 33.7653L45.4021 33.811C44.4338 33.8849 43.5342 34.3396 42.9005 35.0756L41.9971 36.125" stroke="black" stroke-linejoin="bevel"/>
<path d="M59.6635 22.1855L57.7915 22.7251C56.9535 22.9667 56.2592 23.556 55.8846 24.3437V24.3437C55.4144 25.3325 54.4496 25.9928 53.3577 26.0731L52.8878 26.1077C51.919 26.179 51.063 26.7648 50.6459 27.6421V27.6421C50.2287 28.5194 49.3727 29.1052 48.404 29.1765L47.7349 29.2257C46.7661 29.297 45.9101 29.8828 45.4929 30.7601V30.7601C45.0758 31.6374 44.2198 32.2233 43.251 32.2945L42.5747 32.3443C41.5741 32.4179 40.6413 32.8774 39.9731 33.6258L39.0518 34.6577" stroke="black" stroke-linejoin="bevel"/>
<path d="M4.4541 49.0862L37.4329 67.6721L86.9012 39.7932" stroke="black" stroke-linejoin="bevel"/>
<path d="M4.4541 51.5316L37.4329 70.6067L86.9012 41.9941" stroke="black" stroke-linejoin="bevel"/>
<path d="M34.7803 45.6295C33.7537 46.2202 32.3765 46.5298 30.9723 46.5298C29.5681 46.5298 28.191 46.2202 27.1643 45.6295C26.1346 45.0371 25.7344 44.3309 25.7344 43.7285C25.7344 43.1261 26.1346 42.4199 27.1643 41.8275C28.191 41.2368 29.5681 40.9271 30.9723 40.9271C32.3765 40.9271 33.7537 41.2368 34.7803 41.8275C35.81 42.4199 36.2103 43.1261 36.2103 43.7285C36.2103 44.3309 35.81 45.0371 34.7803 45.6295Z" stroke="black" stroke-linejoin="bevel"/>
<path fill-rule="evenodd" clip-rule="evenodd" d="M45.9053 45.7242C42.6382 44.1939 37.8228 44.3043 34.7791 46.0555C31.7268 47.8117 31.5425 50.5932 34.2264 52.4732L35.5322 51.7186C33.5643 50.2563 33.7467 48.1456 36.0793 46.8035C38.405 45.4654 42.0589 45.3571 44.5995 46.4788L45.9053 45.7242Z" fill="black"/>
</svg>

<svg width="106" height="87" fill="none" xmlns="http://www.w3.org/2000/svg"><path d="M49.358 70.974l52.634-31.18L64.449 17.05l-10.674-1.1L86.9 34.29v7.337L37.21 70.973h12.147z" fill="#C7E0ED"/><path d="M53.922 18.517L4.454 46.69l32.979 18.78L86.9 37.3 53.922 18.517z" fill="#D4EEFC"/><path d="M85.89 34.364L37.434 61.961 5.464 43.755l48.458-27.597 31.969 18.206z" stroke="#000" stroke-linejoin="bevel"/><path d="M4.454 46.396l32.979 19.075L86.9 36.86" stroke="#000" stroke-linejoin="bevel"/><path d="M55.247 44.195l2.528-1.953a14.76 14.76 0 015.19-2.572l.664-.179a12.29 12.29 0 005.688-3.37 12.283 12.283 0 014.303-2.91l3.711-1.488m-15.458-8.07l-1.776.53a2.997 2.997 0 00-1.866 1.623v0a2.997 2.997 0 01-2.496 1.739l-.35.026a2.65 2.65 0 00-2.208 1.538v0a2.65 2.65 0 01-2.207 1.538l-.554.043a2.65 2.65 0 00-2.208 1.537v0a2.65 2.65 0 01-2.207 1.538l-.599.046a3.67 3.67 0 00-2.502 1.265l-.903 1.049m17.666-13.939l-1.871.54a3.046 3.046 0 00-1.907 1.618v0a3.045 3.045 0 01-2.527 1.73l-.47.034a2.702 2.702 0 00-2.242 1.534v0a2.702 2.702 0 01-2.242 1.535l-.67.049a2.702 2.702 0 00-2.241 1.534v0a2.702 2.702 0 01-2.242 1.534l-.676.05a3.87 3.87 0 00-2.602 1.282l-.921 1.032" stroke="#000" stroke-linejoin="bevel"/><path d="M4.454 49.086l32.979 18.586L86.9 39.793" stroke="#000" stroke-linejoin="bevel"/><path d="M4.454 51.532l32.979 19.075L86.9 41.994M34.78 45.63c-1.026.59-2.404.9-3.808.9s-2.781-.31-3.808-.9c-1.03-.593-1.43-1.3-1.43-1.902 0-.602.4-1.308 1.43-1.9 1.027-.591 2.404-.9 3.808-.9s2.782.309 3.808.9c1.03.592 1.43 1.298 1.43 1.9 0 .603-.4 1.31-1.43 1.901z" stroke="#000" stroke-linejoin="bevel"/><path fill-rule="evenodd" clip-rule="evenodd" d="M45.905 45.724c-3.267-1.53-8.082-1.42-11.126.332-3.052 1.756-3.237 4.537-.553 6.417l1.306-.754c-1.968-1.463-1.785-3.573.547-4.916 2.326-1.338 5.98-1.446 8.52-.324l1.306-.755z" fill="#000"/></svg>
